X: 305767
M: 3/4
L: 1/8
K: G
g2 gfga | .b2 .g2 .f2 | .d2 .e2 .B2 | (.d2 .^c2 .=c2) |\
cz a^gab | .c'2 .a2 .f2 | .d2 .e2 .c2 |[1 (d4 c2) :|[2 B4 z2 H|]
M: 3/8
L: 1/8
de>d | AA^G | BA2 | ABc |\
de>d | BBA | cB2 | GBc |\
de>d | AA^G | BA2 | ABc |\
de>d | Ggg | "^D.C."g3 |]


